!!!COM: Anonymous
!!!OTL@@POL: Ziemia ożyła
!!!TXO: Polish
!!!ODT: 
!!!GTL: Hymnbook L 1642(a)
!!!ARL: Biblioteka Diecezjalna w Sandomierzu 
!!!voices:	3
**kern	**text	**kern	**text	**kern	**text
*staff3	*staff3	*staff2	*staff2	*staff1	*staff1
*I"Basso	*	*I"Canto II	*	*I"Canto I	*
=1-	=1-	=1-	=1-	=1-	=1-
*clefF4	*	*clefG2	*	*clefG2	*
*k[b-]	*	*k[b-]	*	*k[b-]	*
*M3/2	*	*M3/2	*	*M3/2	*
2F\	Zie-	2a/	Zie-	2cc\	Zie-
2F\	-mia	2a/	-mia	2cc\	-mia
2F\	o-	2a/	o-	2cc\	o-
=2	=2	=2	=2	=2	=2
1F	-ży-	1a	-ży-	1cc	-ży-
2F\	-ła	2a/	-ła	2cc\	-ła
=3	=3	=3	=3	=3	=3
2.F\	nie-	2.a/	nie-	2.cc\	nie-
4D\	-bo	4f/	-bo	4a/	-bo
2E-\	try-	2g/	try-	2b-\	try-
=4	=4	=4	=4	=4	=4
2BB-/	-umf	2b-\	-umf	2dd\	-umf
1F	gra-	1a	gra-	1cc	gra-
=5	=5	=5	=5	=5	=5
1.BB-	-ło	1.b-	-ło	1.b-	-ło
=6	=6	=6	=6	=6	=6
2F\	Bo-	2a/	Bo-	2cc\	Bo-
2F\	-ga-	2a/	-ga-	2cc\	-ga-
2F\	-ro-	2a/	-ro-	2cc\	-ro-
=7	=7	=7	=7	=7	=7
1F	-dzi-	1a	-dzi-	1cc	-dzi-
2F\	-co	2a/	-co	2cc\	-co
=8	=8	=8	=8	=8	=8
2.F\	a	2.a/	a	2.cc\	a
4D\	pie-	4f/	pie-	4a/	pie-
2E-\	-kło	2g/	-kło	2b-\	-kło
=9	=9	=9	=9	=9	=9
2BB-/	za-	2b-\	za-	2dd\	za-
1F	-drża-	1a	-drża-	1cc	-drża-
=10	=10	=10	=10	=10	=10
1.BB-	-ło	1.b-	-ło	1.b-	-ło
=11	=11	=11	=11	=11	=11
2BB-/	W͜pier-	2b-\	W͜pier-	2dd\	W͜pier-
2BB-/	-wszym	2b-\	-wszym	2dd\	-wszym
2BB-/	mo-	2dd\	mo-	2ff\	mo-
=12	=12	=12	=12	=12	=12
1C	-men-	1cc	-men-	1ee-	-men-
2C/	-cie	2cc\	-cie	2ee-\	-cie
=13	=13	=13	=13	=13	=13
2.D\	nie-	2.b-\	nie-	2.dd\	nie-
4D\	-po-	4a/	-po-	4cc\	-po-
2E-i\	-ka-	2cc\	-ka-	2ee-\	-ka-
=14	=14	=14	=14	=14	=14
2BB-/	-la-	2b-\	-la-	2dd\	-la-
1F	-ne-	1a	-ne-	1cc	-ne-
=15	=15	=15	=15	=15	=15
1.BB-	-go	1.b-	-go	1.b-	-go
=16	=16	=16	=16	=16	=16
2F\	Po-	2a/	Po-	2cc\	Po-
2BB-/	-czę-	2g/	-czę-	2b-\	-czę-
2F\	-cia	2f/	-cia	2a/	-cia
=17	=17	=17	=17	=17	=17
1C	twe-	1e	twe-	1g	twe-
2F\	-go	2f/	-go	2f/	-go
=18	=18	=18	=18	=18	=18
2F\	po-	2cc\	po-	2cc\	po-
2F\	-czę-	4dd\	-czę-	2b-\	-czę-
.	.	4ee\	.	.	.
2F\	-cia	2ff\	-cia	2a/	-cia
=19	=19	=19	=19	=19	=19
1C	twe-	1ee	twe-	1g	twe-
2F\	-go	2ff\	-go	2f/	-go
=20	=20	=20	=20	=20	=20
2AA/	po-	2cc\	po-	2cc\	po-
2GG/	-czę-	2b-\	-czę-	4dd\	-czę-
.	.	.	.	4ee\	.
2AA/	-cia	2a/	-cia	2ff\	-cia
=21	=21	=21	=21	=21	=21
1.C	twe-	1.g	twe-	4gg\	twe-
.	.	.	.	4ff\	.
.	.	.	.	1ee	.
=22	=22	=22	=22	=22	=22
1.F	-go.	1.f	-go.	1.ff	-go.
==	==	==	==	==	==
*-	*-	*-	*-	*-	*-
!!!GTL: Hymnbook L 1642(a)
!!!EFL: 6/34
!!!YEM: Creative Commons CC/BY/NC/SA 4.0
!!!ENC: Marcin Konik
!!!END: 2015-01-06 
!!!EED: Marcin Konik
!!!EEV: 
!!!ONB: Translated from MusicXML and edited by Marcin Konik
!!!CharacterEncoding: utf-8
!!!RDF**kern: i=editorial accidental
!!muse2ps: z14jc180F
!!title: @{OTL}, @{GTL}: @{pag}, ed. @{ENC}
